X: 11927
T: Empty Beercans
R: jig
M: 6/8
K: Eminor
|:EBB EBB|A>BA AFD|EBB edB|A>BA AFA|
EBB EBB|A>BA def|gfe fed|e2z z3:|
eBG EGB|efe gfe|dAF DFA|ded B^cd|
eBG EGB|efe gab|gfe fed|e2z z2f|
eBG EGB|efe gfe|dAF DFA|ded fga|
eBG EGB|efe g>ag|gfe fed|e2z z2||

